icons/egg-fried.svg

<svg xmlns="http://www.w3.org/2000/svg" width="96" height="96"><path d="M19.1 57.7l-.4 3.8c0 4.2 1.7 8.2 4.7 11.1 2.9 3 6.9 4.7 11.1 4.7l3.8-.4c1-.1 2.1.3 3 1C45.9 81.8 51.9 84 58 84c6.9 0 13.5-2.7 18.4-7.6C81.3 71.5 84 64.9 84 58c0-6.1-2.2-12-6.1-16.7 1.8-3 2.8-6.5 2.8-10 0-5.1-2.1-10-5.7-13.6C71.4 14 66.5 12 61.3 12c-5 0-9.9 2-13.5 5.5-.7.8-1.8 1.2-2.8 1.2h-.4c-2 0-3.9 1-5 2.8-.6 1-1.7 1.7-2.9 1.8-1.2.1-2.4-.3-3.3-1.1-2.3-2.3-5.5-3.5-8.7-3.5-3.4 0-6.6 1.3-9 3.7-2.4 2.4-3.7 5.6-3.7 8.9 0 3.5 1.4 6.7 3.9 9.1.9.9 1.3 2.2 1.1 3.4l-.6 4.5c.1 2.4.8 4.8 2.1 6.9.5.8.7 1.7.6 2.5zm24.3-47c-2.8.3-5.5 1.4-7.7 3.2-3.3-2.1-7.1-3.2-11-3.2-5.5 0-10.8 2.1-14.6 6C6.2 20.6 4 25.9 4 31.3c0 4.9 1.7 9.6 4.9 13.3l-.4 2.9c0 .1-.1.3-.1.5 0 3.6.9 7 2.6 10.2l-.3 2.7v.4c0 6.4 2.5 12.5 7 17s10.6 7 17 7h.4l2.4-.2C43.4 89.6 50.6 92 58 92c9 0 17.7-3.6 24-10 6.4-6.3 10-15 10-24 0-6.2-1.7-12.3-4.9-17.6 1-2.9 1.6-6 1.6-9.1 0-7.2-2.9-14.2-8-19.3-5.2-5.1-12.1-8-19.4-8-6.6 0-12.9 2.4-17.9 6.7zM32 48c0-4.2 1.7-8.3 4.7-11.3S43.8 32 48 32c4.2 0 8.3 1.7 11.3 4.7S64 43.8 64 48c0 4.2-1.7 8.3-4.7 11.3S52.2 64 48 64c-4.2 0-8.3-1.7-11.3-4.7S32 52.2 32 48zm8 0c0-2.1.8-4.2 2.3-5.7 1.5-1.5 3.6-2.3 5.7-2.3s4.2.8 5.7 2.3c1.5 1.5 2.3 3.6 2.3 5.7s-.8 4.2-2.3 5.7C52.2 55.2 50.1 56 48 56s-4.2-.8-5.7-2.3C40.8 52.2 40 50.1 40 48z" fill-rule="evenodd" fill="#454545"/></svg>

<?xml version="1.0" standalone="no"?><!-- Generator: Gravit.io --><svg xmlns="http://www.w3.org/2000/svg" xmlns:xlink="http://www.w3.org/1999/xlink" width="96" height="96"><path d=" M 19.1 57.7 L 18.7 61.5 C 18.7 65.7 20.4 69.7 23.4 72.6 C 26.3 75.6 30.3 77.3 34.5 77.3 L 38.3 76.9 C 39.3 76.8 40.4 77.2 41.3 77.9 C 45.9 81.8 51.9 84 58 84 C 64.9 84 71.5 81.3 76.4 76.4 C 81.3 71.5 84 64.9 84 58 C 84 51.9 81.8 46 77.9 41.3 C 79.7 38.3 80.7 34.8 80.7 31.3 C 80.7 26.2 78.6 21.3 75 17.7 C 71.4 14 66.5 12 61.3 12 C 56.3 12 51.4 14 47.8 17.5 C 47.1 18.3 46 18.7 45 18.7 L 44.6 18.7 C 42.6 18.7 40.7 19.7 39.6 21.5 C 39 22.5 37.9 23.2 36.7 23.3 C 35.5 23.4 34.3 23 33.4 22.2 C 31.1 19.9 27.9 18.7 24.7 18.7 C 21.3 18.7 18.1 20 15.7 22.4 C 13.3 24.8 12 28 12 31.3 C 12 34.8 13.4 38 15.9 40.4 C 16.8 41.3 17.2 42.6 17 43.8 L 16.4 48.3 C 16.5 50.7 17.2 53.1 18.5 55.2 C 19 56 19.2 56.9 19.1 57.7 Z  M 43.4 10.7 C 40.6 11 37.9 12.1 35.7 13.9 C 32.4 11.8 28.6 10.7 24.7 10.7 C 19.2 10.7 13.9 12.8 10.1 16.7 C 6.2 20.6 4 25.9 4 31.3 C 4 36.2 5.7 40.9 8.9 44.6 L 8.5 47.5 C 8.5 47.6 8.4 47.8 8.4 48 C 8.4 51.6 9.3 55 11 58.2 L 10.7 60.9 C 10.7 61.1 10.7 61.2 10.7 61.3 C 10.7 67.7 13.2 73.8 17.7 78.3 C 22.2 82.8 28.3 85.3 34.7 85.3 C 34.8 85.3 34.9 85.3 35.1 85.3 L 37.5 85.1 C 43.4 89.6 50.6 92 58 92 C 67 92 75.7 88.4 82 82 C 88.4 75.7 92 67 92 58 C 92 51.8 90.3 45.7 87.1 40.4 C 88.1 37.5 88.7 34.4 88.7 31.3 C 88.7 24.1 85.8 17.1 80.7 12 C 75.5 6.9 68.6 4 61.3 4 C 54.7 4 48.4 6.4 43.4 10.7 Z  M 32 48 C 32 43.8 33.7 39.7 36.7 36.7 C 39.7 33.7 43.8 32 48 32 C 52.2 32 56.3 33.7 59.3 36.7 C 62.3 39.7 64 43.8 64 48 C 64 52.2 62.3 56.3 59.3 59.3 C 56.3 62.3 52.2 64 48 64 C 43.8 64 39.7 62.3 36.7 59.3 C 33.7 56.3 32 52.2 32 48 Z  M 40 48 C 40 45.9 40.8 43.8 42.3 42.3 C 43.8 40.8 45.9 40 48 40 C 50.1 40 52.2 40.8 53.7 42.3 C 55.2 43.8 56 45.9 56 48 C 56 50.1 55.2 52.2 53.7 53.7 C 52.2 55.2 50.1 56 48 56 C 45.9 56 43.8 55.2 42.3 53.7 C 40.8 52.2 40 50.1 40 48 Z " fill-rule="evenodd" fill="#454545" stroke="none"/><mask id="_mask_WfUoSZ7rDulLCDOGLRiop4QL7VX20KGw"><path d=" M 19.1 57.7 L 18.7 61.5 C 18.7 65.7 20.4 69.7 23.4 72.6 C 26.3 75.6 30.3 77.3 34.5 77.3 L 38.3 76.9 C 39.3 76.8 40.4 77.2 41.3 77.9 C 45.9 81.8 51.9 84 58 84 C 64.9 84 71.5 81.3 76.4 76.4 C 81.3 71.5 84 64.9 84 58 C 84 51.9 81.8 46 77.9 41.3 C 79.7 38.3 80.7 34.8 80.7 31.3 C 80.7 26.2 78.6 21.3 75 17.7 C 71.4 14 66.5 12 61.3 12 C 56.3 12 51.4 14 47.8 17.5 C 47.1 18.3 46 18.7 45 18.7 L 44.6 18.7 C 42.6 18.7 40.7 19.7 39.6 21.5 C 39 22.5 37.9 23.2 36.7 23.3 C 35.5 23.4 34.3 23 33.4 22.2 C 31.1 19.9 27.9 18.7 24.7 18.7 C 21.3 18.7 18.1 20 15.7 22.4 C 13.3 24.8 12 28 12 31.3 C 12 34.8 13.4 38 15.9 40.4 C 16.8 41.3 17.2 42.6 17 43.8 L 16.4 48.3 C 16.5 50.7 17.2 53.1 18.5 55.2 C 19 56 19.2 56.9 19.1 57.7 Z  M 43.4 10.7 C 40.6 11 37.9 12.1 35.7 13.9 C 32.4 11.8 28.6 10.7 24.7 10.7 C 19.2 10.7 13.9 12.8 10.1 16.7 C 6.2 20.6 4 25.9 4 31.3 C 4 36.2 5.7 40.9 8.9 44.6 L 8.5 47.5 C 8.5 47.6 8.4 47.8 8.4 48 C 8.4 51.6 9.3 55 11 58.2 L 10.7 60.9 C 10.7 61.1 10.7 61.2 10.7 61.3 C 10.7 67.7 13.2 73.8 17.7 78.3 C 22.2 82.8 28.3 85.3 34.7 85.3 C 34.8 85.3 34.9 85.3 35.1 85.3 L 37.5 85.1 C 43.4 89.6 50.6 92 58 92 C 67 92 75.7 88.4 82 82 C 88.4 75.7 92 67 92 58 C 92 51.8 90.3 45.7 87.1 40.4 C 88.1 37.5 88.7 34.4 88.7 31.3 C 88.7 24.1 85.8 17.1 80.7 12 C 75.5 6.9 68.6 4 61.3 4 C 54.7 4 48.4 6.4 43.4 10.7 Z  M 32 48 C 32 43.8 33.7 39.7 36.7 36.7 C 39.7 33.7 43.8 32 48 32 C 52.2 32 56.3 33.7 59.3 36.7 C 62.3 39.7 64 43.8 64 48 C 64 52.2 62.3 56.3 59.3 59.3 C 56.3 62.3 52.2 64 48 64 C 43.8 64 39.7 62.3 36.7 59.3 C 33.7 56.3 32 52.2 32 48 Z  M 40 48 C 40 45.9 40.8 43.8 42.3 42.3 C 43.8 40.8 45.9 40 48 40 C 50.1 40 52.2 40.8 53.7 42.3 C 55.2 43.8 56 45.9 56 48 C 56 50.1 55.2 52.2 53.7 53.7 C 52.2 55.2 50.1 56 48 56 C 45.9 56 43.8 55.2 42.3 53.7 C 40.8 52.2 40 50.1 40 48 Z " fill-rule="evenodd" fill="white" stroke="none"/></mask><path d=" M 19.1 57.7 L 18.7 61.5 C 18.7 65.7 20.4 69.7 23.4 72.6 C 26.3 75.6 30.3 77.3 34.5 77.3 L 38.3 76.9 C 39.3 76.8 40.4 77.2 41.3 77.9 C 45.9 81.8 51.9 84 58 84 C 64.9 84 71.5 81.3 76.4 76.4 C 81.3 71.5 84 64.9 84 58 C 84 51.9 81.8 46 77.9 41.3 C 79.7 38.3 80.7 34.8 80.7 31.3 C 80.7 26.2 78.6 21.3 75 17.7 C 71.4 14 66.5 12 61.3 12 C 56.3 12 51.4 14 47.8 17.5 C 47.1 18.3 46 18.7 45 18.7 L 44.6 18.7 C 42.6 18.7 40.7 19.7 39.6 21.5 C 39 22.5 37.9 23.2 36.7 23.3 C 35.5 23.4 34.3 23 33.4 22.2 C 31.1 19.9 27.9 18.7 24.7 18.7 C 21.3 18.7 18.1 20 15.7 22.4 C 13.3 24.8 12 28 12 31.3 C 12 34.8 13.4 38 15.9 40.4 C 16.8 41.3 17.2 42.6 17 43.8 L 16.4 48.3 C 16.5 50.7 17.2 53.1 18.5 55.2 C 19 56 19.2 56.9 19.1 57.7 Z  M 43.4 10.7 C 40.6 11 37.9 12.1 35.7 13.9 C 32.4 11.8 28.6 10.7 24.7 10.7 C 19.2 10.7 13.9 12.8 10.1 16.7 C 6.2 20.6 4 25.9 4 31.3 C 4 36.2 5.7 40.9 8.9 44.6 L 8.5 47.5 C 8.5 47.6 8.4 47.8 8.4 48 C 8.4 51.6 9.3 55 11 58.2 L 10.7 60.9 C 10.7 61.1 10.7 61.2 10.7 61.3 C 10.7 67.7 13.2 73.8 17.7 78.3 C 22.2 82.8 28.3 85.3 34.7 85.3 C 34.8 85.3 34.9 85.3 35.1 85.3 L 37.5 85.1 C 43.4 89.6 50.6 92 58 92 C 67 92 75.7 88.4 82 82 C 88.4 75.7 92 67 92 58 C 92 51.8 90.3 45.7 87.1 40.4 C 88.1 37.5 88.7 34.4 88.7 31.3 C 88.7 24.1 85.8 17.1 80.7 12 C 75.5 6.9 68.6 4 61.3 4 C 54.7 4 48.4 6.4 43.4 10.7 Z  M 32 48 C 32 43.8 33.7 39.7 36.7 36.7 C 39.7 33.7 43.8 32 48 32 C 52.2 32 56.3 33.7 59.3 36.7 C 62.3 39.7 64 43.8 64 48 C 64 52.2 62.3 56.3 59.3 59.3 C 56.3 62.3 52.2 64 48 64 C 43.8 64 39.7 62.3 36.7 59.3 C 33.7 56.3 32 52.2 32 48 Z  M 40 48 C 40 45.9 40.8 43.8 42.3 42.3 C 43.8 40.8 45.9 40 48 40 C 50.1 40 52.2 40.8 53.7 42.3 C 55.2 43.8 56 45.9 56 48 C 56 50.1 55.2 52.2 53.7 53.7 C 52.2 55.2 50.1 56 48 56 C 45.9 56 43.8 55.2 42.3 53.7 C 40.8 52.2 40 50.1 40 48 Z " fill-rule="evenodd" fill="none" stroke="none" stroke-width="16" mask="url(#_mask_WfUoSZ7rDulLCDOGLRiop4QL7VX20KGw)"/></svg>
